packages/core/src/svgs/ada.svg

<svg width="24" height="24" viewBox="0 0 24 24" fill="none" xmlns="http://www.w3.org/2000/svg">
<g clip-path="url(#clip0_31_5580)">
<path d="M0 0H24V24H0V0Z" fill="#246DD3"/>
<path d="M11.8158 5.18496C12.1523 5.01311 12.5667 5.40439 12.3841 5.73396C12.2855 5.99496 11.893 6.06396 11.6821 5.86468C11.4717 5.67225 11.542 5.28782 11.8227 5.17811L11.8154 5.18453L11.8158 5.18496ZM8.20126 5.56211C8.41169 5.47982 8.66412 5.65853 8.64355 5.87153C8.66455 6.10468 8.36969 6.28296 8.15926 6.16639C7.8854 6.06353 7.92055 5.63068 8.20126 5.56211ZM15.6121 6.17368C15.2894 6.13211 15.2401 5.65168 15.5423 5.55568C15.7878 5.44553 16.0051 5.65168 16.0403 5.87153C15.9914 6.05668 15.8298 6.22853 15.6121 6.17368ZM9.0224 7.03853C9.36612 6.83282 9.8504 7.14139 9.79426 7.51896C9.78055 7.91068 9.25426 8.13696 8.95212 7.87639C8.65769 7.67025 8.70655 7.19625 9.0224 7.03853ZM14.2368 7.26525C14.3911 6.88768 15.0087 6.87353 15.184 7.23782C15.3524 7.52582 15.142 7.88282 14.8334 7.97925C14.4331 8.04782 14.0474 7.63596 14.2368 7.26525ZM11.3804 7.95182C11.3804 7.62911 11.689 7.38868 12.0121 7.36811C12.2225 7.40925 12.4544 7.49839 12.5453 7.70453C12.7137 7.98611 12.5667 8.37739 12.2577 8.51453C12.1171 8.58311 11.9491 8.55568 11.7948 8.54882C11.563 8.43911 11.3663 8.21968 11.3804 7.95868V7.95182ZM6.00483 8.43225C6.3134 8.24711 6.73469 8.58353 6.61512 8.91311C6.55212 9.18739 6.15912 9.30439 5.93455 9.12568C5.69583 8.95425 5.73098 8.54925 6.00483 8.43225ZM17.5561 8.43225C17.8227 8.22653 18.2581 8.45968 18.223 8.77553C18.244 9.07082 17.872 9.29753 17.6054 9.14625C17.3174 9.01596 17.2823 8.59725 17.5561 8.43225ZM12.8963 9.01596C13.1152 8.94483 13.3512 8.94588 13.5695 9.01896C13.7881 9.09225 13.9754 9.23325 14.1035 9.42096C14.4263 9.87396 14.2578 10.5742 13.7453 10.8352C13.219 11.1511 12.4471 10.8832 12.2508 10.3205C12.0263 9.81225 12.349 9.17368 12.8963 9.01596ZM10.3347 9.06396C10.819 8.84411 11.4717 9.02968 11.7031 9.50325C11.9838 9.97039 11.7665 10.6158 11.2754 10.8558C10.7838 11.1305 10.0823 10.9244 9.8504 10.4234C9.57698 9.94296 9.81526 9.28339 10.3347 9.06396ZM7.76626 9.90825C7.8014 9.60653 8.09626 9.41411 8.39798 9.39353C8.71383 9.42782 8.96626 9.66782 9.0014 9.97725C8.97998 10.2858 8.73483 10.5948 8.39798 10.5948C8.01869 10.6227 7.69598 10.2584 7.76626 9.90825ZM15.3455 9.45525C15.7313 9.24953 16.258 9.55811 16.2438 9.97725C16.2721 10.4302 15.6824 10.7461 15.3035 10.4851C14.9033 10.2657 14.9315 9.64768 15.3455 9.45525ZM9.28898 11.041C9.51237 10.9836 9.74828 10.9997 9.96183 11.0868C10.1748 11.1734 10.3527 11.3268 10.468 11.5218C10.7135 11.9204 10.6085 12.4831 10.2365 12.7715C9.75912 13.2044 8.87498 13.0257 8.62255 12.442C8.32769 11.9062 8.67826 11.1854 9.28898 11.0414V11.041ZM14.1524 11.041C14.5878 10.9175 15.0995 11.0825 15.3314 11.4601C15.6473 11.8994 15.493 12.5585 15.0365 12.8332C14.5454 13.1632 13.8014 12.9914 13.5348 12.4762C13.2121 11.9478 13.5348 11.1991 14.1524 11.0345V11.0414V11.041ZM6.39783 11.5287C6.78355 11.3915 7.21212 11.8034 7.0574 12.1741C6.95883 12.5105 6.46812 12.6344 6.21526 12.3798C5.91355 12.1535 6.02583 11.632 6.39783 11.5287ZM16.9034 12.0712C16.8997 11.9958 16.9111 11.9204 16.9368 11.8494C16.9626 11.7784 17.0022 11.7132 17.0534 11.6577C17.1575 11.5441 17.3028 11.476 17.458 11.467C17.7177 11.5081 17.9774 11.7142 17.9564 11.9958C17.9843 12.3597 17.521 12.6138 17.1983 12.4351C17.044 12.3665 16.9668 12.2157 16.9034 12.0712ZM4.48898 11.7142C4.72726 11.6182 5.01526 11.8102 4.95912 12.0571C4.94498 12.3391 4.51683 12.4488 4.35569 12.2157C4.21512 12.0507 4.29955 11.8034 4.49583 11.7142H4.48898ZM19.1915 11.7142C19.36 11.5977 19.6193 11.6731 19.6827 11.8582C19.795 12.064 19.5914 12.3391 19.36 12.3044C19.03 12.3322 18.9177 11.8514 19.1915 11.7074V11.7142ZM10.5524 13.06C11.1631 12.9087 11.8227 13.4028 11.8295 14.0071C11.8647 14.6251 11.2188 15.1745 10.5875 15.0305C10.349 14.989 10.1324 14.8653 9.97555 14.6808C9.82065 14.4988 9.73638 14.2671 9.73812 14.0281C9.73812 13.5815 10.0895 13.156 10.5524 13.0668V13.06ZM12.9807 13.06C13.6051 12.895 14.2788 13.3964 14.272 14.0212C14.3067 14.6182 13.6754 15.1471 13.0578 15.0237C12.4823 14.9551 12.0541 14.344 12.2157 13.8014C12.2997 13.4444 12.6087 13.1491 12.9807 13.06ZM8.29255 13.4371C8.72755 13.3685 9.13469 13.8288 8.95255 14.2201C8.82612 14.6388 8.19398 14.7558 7.91369 14.4125C7.58369 14.0825 7.82926 13.4782 8.29255 13.4371ZM15.4227 13.4581C15.8015 13.3 16.279 13.6227 16.2438 14.0212C16.2653 14.4605 15.6824 14.7695 15.3035 14.5085C14.8823 14.275 14.9525 13.5957 15.4227 13.4581ZM17.4087 15.3807C17.2613 15.106 17.5351 14.749 17.8441 14.797C17.9984 14.797 18.1107 14.9135 18.2088 15.0164C18.2303 15.1745 18.265 15.3601 18.1244 15.4904C17.935 15.7171 17.5141 15.6481 17.4087 15.3807ZM5.99755 14.8724C6.28555 14.6872 6.69955 14.9684 6.63612 15.2911C6.6014 15.5868 6.22212 15.7514 5.97655 15.5868C5.70998 15.4355 5.7164 15.01 5.99755 14.8724ZM11.7455 15.4835C12.1244 15.3185 12.6087 15.6412 12.5735 16.0398C12.6014 16.4855 12.0053 16.795 11.6333 16.5271C11.212 16.3004 11.2818 15.6207 11.7455 15.4835ZM9.07855 16.081C9.40855 15.916 9.84355 16.1975 9.8084 16.5481C9.82255 16.8361 9.52769 17.0834 9.24012 17.035C8.99455 17.035 8.83298 16.8224 8.75583 16.6235C8.75583 16.4037 8.8544 16.1632 9.08583 16.0741L9.07855 16.081ZM14.4824 16.081C14.8124 15.8817 15.2825 16.1701 15.2543 16.5408C15.2611 16.9394 14.728 17.1862 14.4121 16.9321C14.1173 16.7264 14.1524 16.2455 14.4824 16.0878V16.081ZM15.4158 18.3121C15.2684 18.1064 15.4437 17.8385 15.6824 17.7905C15.8791 17.8317 16.0823 17.9688 16.0334 18.1818C16.012 18.4771 15.5701 18.5662 15.4158 18.319V18.3121ZM7.96983 18.127C8.02555 17.9555 8.16612 17.7837 8.37698 17.8312C8.68555 17.8522 8.77683 18.2984 8.50983 18.4355C8.26469 18.5868 7.99083 18.3742 7.96983 18.127ZM11.563 18.3258C11.6187 18.0721 11.9628 17.9487 12.1874 18.0858C12.328 18.1475 12.3768 18.3052 12.412 18.4428L12.3563 18.6485C12.2645 18.7587 12.1454 18.8615 11.998 18.8542C11.7104 18.889 11.4507 18.58 11.563 18.3258Z" fill="white"/>
</g>
<defs>
<clipPath id="clip0_31_5580">
<rect width="24" height="24" fill="white"/>
</clipPath>
</defs>
</svg>

<svg xmlns="http://www.w3.org/2000/svg" width="24" height="24" fill="none" viewBox="0 0 24 24"><g clip-path="url(#a)"><path fill="#246DD3" d="M0 0h24v24H0z"/><path fill="#fff" d="M11.816 5.185c.336-.172.75.22.568.549-.098.261-.491.33-.702.13-.21-.192-.14-.576.14-.686zM8.2 5.562c.21-.082.463.097.443.31.02.233-.274.411-.485.294-.274-.102-.238-.535.042-.604m7.411.612c-.323-.042-.372-.522-.07-.618.246-.11.463.096.498.316-.049.185-.21.357-.428.302m-6.59.865c.344-.206.828.102.772.48-.013.392-.54.618-.842.357-.294-.206-.245-.68.07-.837m5.215.226c.154-.377.772-.391.947-.027.168.288-.042.645-.35.741-.4.069-.787-.343-.597-.714m-2.857.687c0-.323.309-.563.632-.584.21.041.442.13.533.337.169.281.022.672-.287.81-.14.068-.309.04-.463.034-.232-.11-.429-.33-.415-.59zm-5.375.48c.308-.185.73.152.61.481-.063.274-.456.391-.68.213-.24-.172-.204-.577.07-.694m11.551 0c.267-.205.702.028.667.344.021.295-.351.522-.618.37-.288-.13-.323-.549-.049-.714m-4.66.584c.22-.071.455-.07.673.003.22.073.406.214.534.402.323.453.155 1.153-.358 1.414-.526.316-1.298.048-1.494-.515-.225-.508.098-1.146.645-1.304m-2.561.048c.484-.22 1.137-.034 1.368.44.28.466.064 1.112-.428 1.352-.491.274-1.193.068-1.425-.433-.273-.48-.035-1.14.485-1.359m-2.569.844c.035-.301.33-.494.632-.514a.67.67 0 0 1 .603.583c-.021.309-.266.618-.603.618-.38.028-.702-.337-.632-.687m7.58-.453c.385-.205.912.103.898.522.028.453-.562.77-.94.508-.4-.22-.373-.837.041-1.03m-6.057 1.586c.223-.057.46-.041.673.046.213.086.39.24.506.435a.976.976 0 0 1-.232 1.25c-.477.432-1.361.254-1.613-.33-.295-.536.055-1.257.666-1.4zm4.863 0c.436-.123.948.041 1.18.42.315.438.161 1.098-.296 1.372-.49.33-1.235.158-1.501-.357-.323-.528 0-1.277.617-1.442zm-7.754.488c.386-.137.814.274.66.645-.1.337-.59.46-.843.206-.301-.227-.19-.748.183-.851m10.505.542a.57.57 0 0 1 .15-.413.6.6 0 0 1 .405-.191c.26.041.52.247.498.529.028.364-.435.618-.758.44-.154-.07-.231-.22-.295-.365M4.49 11.714c.238-.096.526.096.47.343-.014.282-.442.392-.603.159-.14-.165-.056-.413.14-.502zm14.703 0c.168-.116.427-.04.49.144.113.206-.09.481-.322.446-.33.028-.442-.453-.168-.597zm-8.64 1.346c.611-.151 1.27.343 1.277.947.036.618-.61 1.168-1.242 1.024a1.04 1.04 0 0 1-.611-.35 1 1 0 0 1-.238-.653c0-.447.351-.872.814-.961zm2.429 0c.624-.165 1.298.336 1.291.961.035.597-.597 1.126-1.214 1.003-.576-.069-1.004-.68-.842-1.223.084-.357.393-.652.765-.741m-4.688.377c.435-.069.842.392.66.783-.127.419-.759.536-1.04.192-.33-.33-.084-.934.38-.975m7.13.021c.379-.158.856.165.82.563.022.44-.56.749-.94.487-.42-.233-.35-.912.12-1.05m1.986 1.923c-.148-.275.126-.632.435-.584.154 0 .267.117.365.22.021.158.056.343-.085.473-.189.227-.61.158-.715-.11m-11.411-.509c.288-.185.702.096.638.42-.035.295-.414.46-.66.295-.266-.152-.26-.577.022-.715m5.748.611c.378-.165.863.158.827.557.028.445-.568.755-.94.487-.421-.227-.351-.906.113-1.044m-2.667.598c.33-.165.765.117.73.467.014.288-.281.535-.569.487-.245 0-.407-.213-.484-.412 0-.22.098-.46.33-.549zm5.403 0c.33-.2.8.09.772.46.007.398-.526.645-.842.391a.5.5 0 0 1 .07-.844zm.934 2.231c-.148-.206.028-.474.266-.521.197.04.4.178.351.39-.021.296-.463.385-.617.138zm-7.446-.185c.056-.171.196-.343.407-.296.309.021.4.467.133.605-.245.15-.52-.062-.54-.309m3.593.199c.056-.254.4-.377.624-.24.141.062.19.22.225.357l-.056.205c-.091.11-.21.213-.358.206-.288.035-.547-.274-.435-.528"/></g><defs><clipPath id="a"><path fill="#fff" d="M0 0h24v24H0z"/></clipPath></defs></svg>
